X:1
T:Title
%%score { 1 | ( 2 3 ) }
L:1/8
Q:1/4=100
M:4/4
K:G
V:1 treble nm="Grand Piano"
V:2 treble 
V:3 treble 
V:1
 D2 G>A B2 B>B | c2 c>c B4 | [GB]2 [FA]>[FA] [Fd]2 [Ac]>[Ac] | B4 G4 | D2 G>A B2 B>B | c2 c>c B4 | %6
w: John~R.~Sweney * * * * *||||||
 [FA]2 [Fd]>[Fd] [E^c]2 [GB]>[Gc] | [Fd]6 z2 | d2 ^c>d e2 d2 | [Fd]2 [FA]>[GB] [Ac]4 | %10
w: ||||
 [Ac]2 [FA][GB] [Ac][Bd] [ce]2 | [Bd]2 [Bd]>[Ac] B4 | D2 G>A B2 [GB]2 | [Gc]2 [Gd]>[Gd] [Ge]4 | %14
w: ||||
 [Gd]2 [Gd]>[Gd] [Fd]2 [Fc]>[FA] |[M:3/4] G6 |] %16
w: ||
V:2
 [G,B,]2 [G,B,D]>[G,CD] [G,DG]2 [G,DG]>[G,DG] | [G,EG]2 [G,EG]>[G,EG] [G,DG]4 | %2
 [D,D]2 [D,D]>[D,D] [D,A,]2 [D,D]>[D,D] | [DG]4 z4 | [G,B,]2 [G,B,D]>[G,CD] [G,DG]2 [G,DG]>[G,DG] | %5
 [G,EG]2 [G,EG]>[G,EG] [G,DG]4 | [D,D]2 [D,A,]>[D,A,] [A,,A,]2 [A,,A,]>[A,,A,] | [D,A,]6 z2 | %8
 z4 [G,G]4 | [D,A,]2 [D,D]>[D,D] [D,D]4 | [D,D]2 [D,D][D,D] [D,D][D,D] [D,D]2 | %11
 [G,D]2 [G,D]>[G,D] [G,DG]4 | [G,B,]2 [G,B,D]>[G,CD] [G,DG]2[K:bass] [=F,D]2 | %13
 [E,C]2 [D,B,]>[D,B,] [C,C]4 | [D,B,]2 [D,B,]>[D,B,] [D,A,]2 [D,D]>[D,C] |[M:3/4] [G,B,]6 |] %16
V:3
 x8 | x8 | x8 | G,4- [G,B,D]4 | x8 | x8 | x8 | x8 | [G,B,G]2 [G,A,G]>[G,B,G] C2 B,2 | x8 | x8 | %11
 x8 | x6[K:bass] x2 | x8 | x8 |[M:3/4] x6 |] %16

